rospo-icon-theme-classic-common/64x64/mimetypes/text-x-maxima-out.svg

<svg height="64" width="64" xmlns="http://www.w3.org/2000/svg"><path d="m14.5 8c-1.385 0-2.5 1.115-2.5 2.5v45c0 1.384 1.115 2.5 2.5 2.5h35c1.384 0 2.5-1.116 2.5-2.5v-31.5l-16-16z" opacity=".2"/><path d="m14.5 7c-1.385 0-2.5 1.115-2.5 2.5v45c0 1.384 1.115 2.5 2.5 2.5h35c1.384 0 2.5-1.116 2.5-2.5v-31.5l-16-16z" fill="#404b8b"/><path d="m52 24-16-16v13.5c0 1.386 1.116 2.5 2.5 2.5z" opacity=".2"/><path d="m52 23-16-16v13.5c0 1.386 1.116 2.5 2.5 2.5z" fill="#6672ba"/><path d="m14.5 7c-1.385 0-2.5 1.115-2.5 2.5v1c0-1.385 1.115-2.5 2.5-2.5h21.5v-1z" fill="#fff" opacity=".1"/><path d="m23.9999 31v2h .008l4.5918 7.9492-4.5996 7.9648v2.086h16v-4h-2v2h-11.738l4.041-7 .60548-1.0488v-.002l-.60548-1.0488-3.9844-6.9004h9.6816v1h2v-3h-14z" opacity=".2"/><path d="m23.9999 30v2h .008l4.5918 7.9492-4.5996 7.9648v2.086h16v-4h-2v2h-11.738l4.041-7 .60548-1.0488v-.002l-.60548-1.0488-3.9844-6.9004h9.6816v1h2v-3h-14z" fill="#f26265"/></svg>

<svg xmlns="http://www.w3.org/2000/svg" width="64" height="64" version="1.1">
 <path style="opacity:0.2" d="M 14.5,8 C 13.115,8 12,9.115 12,10.5 l 0,45 c 0,1.384 1.115,2.5 2.5,2.5 l 35,0 C 50.884,58 52,56.884 52,55.5 L 52,24 36,8 Z"/>
 <path style="fill:#404b8b" d="M 14.5,7 C 13.115,7 12,8.115 12,9.5 l 0,45 c 0,1.384 1.115,2.5 2.5,2.5 l 35,0 C 50.884,57 52,55.884 52,54.5 L 52,23 36,7 Z"/>
 <path style="opacity:0.2" d="M 52,24 36,8 36,21.5 c 0,1.386 1.116,2.5 2.5,2.5 z"/>
 <path style="fill:#6672ba" d="M 52,23 36,7 36,20.5 c 0,1.386 1.116,2.5 2.5,2.5 z"/>
 <path style="opacity:0.1;fill:#ffffff" d="M 14.5 7 C 13.115 7 12 8.115 12 9.5 L 12 10.5 C 12 9.115 13.115 8 14.5 8 L 36 8 L 36 7 L 14.5 7 z"/>
 <path style="opacity:0.2" d="m 23.9999,31 0,2 0.008,0 4.5918,7.9492 -4.5996,7.9648 0,2.086 16,0 0,-4 -2,0 0,2 -11.738,0 4.041,-7 0.60548,-1.0488 0,-0.002 L 30.3031,39.9004 26.3187,33 l 9.6816,0 0,1 2,0 0,-3 -14,0 z"/>
 <path style="fill:#f26265" d="m 23.9999,30 0,2 0.008,0 4.5918,7.9492 -4.5996,7.9648 0,2.086 16,0 0,-4 -2,0 0,2 -11.738,0 4.041,-7 0.60548,-1.0488 0,-0.002 L 30.3031,38.9004 26.3187,32 l 9.6816,0 0,1 2,0 0,-3 -14,0 z"/>
</svg>
